packages/icons/src/components/Logo/assets/dark/ubuntu.svg

<svg width="20" height="20" viewBox="0 0 20 20" fill="none" xmlns="http://www.w3.org/2000/svg">
<path d="M2.83594 6.61719C4.40234 6.61719 5.67188 7.88672 5.67188 9.45313C5.67188 11.0195 4.40234 12.2891 2.83594 12.2891C1.26953 12.2891 0 11.0195 0 9.45313C0 7.88672 1.26953 6.61719 2.83594 6.61719ZM14.6445 0.398438C16.2109 0.398438 17.4805 1.66797 17.4805 3.23438C17.4805 4.80078 16.2109 6.07031 14.6445 6.07031C13.0781 6.07031 11.8086 4.80078 11.8086 3.23438C11.8086 1.66797 13.0781 0.398438 14.6445 0.398438ZM2.02344 13.3984C3.45312 17 6.96094 19.3438 10.8359 19.2773C10.2812 18.582 9.97656 17.7227 9.96484 16.832C9.71094 16.7969 9.46875 16.7539 9.23438 16.707C7.19922 16.2773 5.47266 14.9453 4.53906 13.0898C3.75781 13.4609 2.875 13.5703 2.02344 13.3984ZM14.0078 13.9297C15.5742 13.9297 16.8438 15.1992 16.8438 16.7656C16.8438 18.332 15.5742 19.6016 14.0078 19.6016C12.4414 19.6016 11.1719 18.332 11.1719 16.7656C11.1719 15.1992 12.4414 13.9297 14.0078 13.9297ZM16.5391 13.6055C17.2305 14.1602 17.7227 14.9258 17.9375 15.7891C20.5039 12.6094 20.6953 8.12891 18.4141 4.74219C18.0898 5.54688 17.5156 6.22656 16.7734 6.67578C17.9453 8.86328 17.8555 11.5078 16.5391 13.6055ZM2.84375 5.41406C3.125 5.41406 3.40625 5.44141 3.68359 5.5C4.15234 5.60156 4.59766 5.78125 5 6.03906C6.26562 4.19531 8.35156 3.07813 10.5859 3.05078C10.5938 2.82813 10.6211 2.60547 10.6641 2.38672C10.8008 1.76172 11.0781 1.17578 11.4805 0.679688C7.82812 0.386719 4.33984 2.23828 2.54297 5.42578C2.64453 5.41797 2.74219 5.41406 2.84375 5.41406Z" fill="white"/>
</svg>

<svg xmlns="http://www.w3.org/2000/svg" width="20" height="20" fill="none" viewBox="0 0 20 20">
    <path fill="#fff" d="M2.836 6.617a2.836 2.836 0 1 1 0 5.672 2.836 2.836 0 0 1 0-5.672M14.645.398a2.836 2.836 0 1 1 0 5.672 2.836 2.836 0 0 1 0-5.672m-12.622 13a9.31 9.31 0 0 0 8.813 5.88 4 4 0 0 1-.871-2.446 12 12 0 0 1-.73-.125 6.84 6.84 0 0 1-4.696-3.617 4 4 0 0 1-2.516.308m11.985.532a2.836 2.836 0 1 1 0 5.671 2.836 2.836 0 0 1 0-5.671m2.531-.325a4.05 4.05 0 0 1 1.398 2.184 9.31 9.31 0 0 0 .477-11.047 4 4 0 0 1-1.64 1.934 6.9 6.9 0 0 1-.235 6.93M2.844 5.416q.422-.002.84.085c.468.102.914.281 1.316.54a6.88 6.88 0 0 1 5.586-2.99q.013-.334.078-.663A4.1 4.1 0 0 1 11.48.681a9.39 9.39 0 0 0-8.937 4.746q.152-.012.3-.012"/>
</svg>
